www/assets/icons/stacked_line_chart.svg

<svg width="24" height="24" viewBox="0 0 24 24" xmlns="http://www.w3.org/2000/svg" fill='currentColor'><path d="M2 19.9898L9.5 12.4798L13.5 16.4798L20.59 8.50977L22 9.91977L13.5 19.4798L9.5 15.4798L3.5 21.4898L2 19.9898ZM3.5 15.4898L9.5 9.47976L13.5 13.4798L22 3.91977L20.59 2.50977L13.5 10.4798L9.5 6.47977L2 13.9898L3.5 15.4898Z"/></svg>

<svg xmlns="http://www.w3.org/2000/svg" width="24" height="24" viewBox="0 0 24 24" fill='currentColor'><path d="m2 19.99 7.5-7.51 4 4 7.09-7.97L22 9.92l-8.5 9.56-4-4-6 6.01zm1.5-4.5 6-6.01 4 4L22 3.92l-1.41-1.41-7.09 7.97-4-4L2 13.99z"/></svg>
